assets/images/icons/inicio.svg

<svg width="24" height="24" viewBox="0 0 24 24" fill="none" xmlns="http://www.w3.org/2000/svg">
<path d="M8.99976 2.9997H3.99976C3.44747 2.9997 2.99976 3.44741 2.99976 3.9997V10.9997C2.99976 11.552 3.44747 11.9997 3.99976 11.9997H8.99976C9.55204 11.9997 9.99976 11.552 9.99976 10.9997V3.9997C9.99976 3.44741 9.55204 2.9997 8.99976 2.9997Z" stroke="#6A7282" stroke-width="1.9998" stroke-linecap="round" stroke-linejoin="round"/>
<path d="M19.9985 2.9997H14.9985C14.4463 2.9997 13.9985 3.44741 13.9985 3.9997V6.9997C13.9985 7.55198 14.4463 7.9997 14.9985 7.9997H19.9985C20.5508 7.9997 20.9985 7.55198 20.9985 6.9997V3.9997C20.9985 3.44741 20.5508 2.9997 19.9985 2.9997Z" stroke="#6A7282" stroke-width="1.9998" stroke-linecap="round" stroke-linejoin="round"/>
<path d="M19.9985 11.9988H14.9985C14.4463 11.9988 13.9985 12.4465 13.9985 12.9988V19.9988C13.9985 20.5511 14.4463 20.9988 14.9985 20.9988H19.9985C20.5508 20.9988 20.9985 20.5511 20.9985 19.9988V12.9988C20.9985 12.4465 20.5508 11.9988 19.9985 11.9988Z" stroke="#6A7282" stroke-width="1.9998" stroke-linecap="round" stroke-linejoin="round"/>
<path d="M8.99976 15.9984H3.99976C3.44747 15.9984 2.99976 16.4461 2.99976 16.9984V19.9984C2.99976 20.5507 3.44747 20.9984 3.99976 20.9984H8.99976C9.55204 20.9984 9.99976 20.5507 9.99976 19.9984V16.9984C9.99976 16.4461 9.55204 15.9984 8.99976 15.9984Z" stroke="#6A7282" stroke-width="1.9998" stroke-linecap="round" stroke-linejoin="round"/>
</svg>

<svg xmlns="http://www.w3.org/2000/svg" width="24" height="24" fill="none"><path stroke="#6a7282" stroke-linecap="round" stroke-linejoin="round" stroke-width="2" d="M9 3H4a1 1 0 0 0-1 1v7a1 1 0 0 0 1 1h5a1 1 0 0 0 1-1V4a1 1 0 0 0-1-1M19.999 3h-5a1 1 0 0 0-1 1v3a1 1 0 0 0 1 1h5a1 1 0 0 0 1-1V4a1 1 0 0 0-1-1M19.999 11.999h-5a1 1 0 0 0-1 1v7a1 1 0 0 0 1 1h5a1 1 0 0 0 1-1v-7a1 1 0 0 0-1-1M9 15.998H4a1 1 0 0 0-1 1v3a1 1 0 0 0 1 1h5a1 1 0 0 0 1-1v-3a1 1 0 0 0-1-1"/></svg>
